img/section2/icons/bath-tub.svg

<svg xmlns="http://www.w3.org/2000/svg" xmlns:xlink="http://www.w3.org/1999/xlink" width="512px" height="512px" style="shape-rendering:geometricPrecision; text-rendering:geometricPrecision; image-rendering:optimizeQuality; fill-rule:evenodd; clip-rule:evenodd"><g><path style="opacity:0.963" fill="#1F628E" d="M 511.5,258.5 C 511.5,263.833 511.5,269.167 511.5,274.5C 509.37,280.078 506.204,285.078 502,289.5C 501.86,314.519 501.193,339.519 500,364.5C 494.818,399.717 478.651,428.55 451.5,451C 457.47,463.106 463.303,475.272 469,487.5C 470.106,495.621 466.606,500.287 458.5,501.5C 454.69,501.012 451.523,499.345 449,496.5C 443.333,485.167 437.667,473.833 432,462.5C 415.676,471.625 398.176,477.125 379.5,479C 296.833,479.667 214.167,479.667 131.5,479C 112.824,477.125 95.3238,471.625 79,462.5C 73.1363,475.064 66.6363,487.23 59.5,499C 49.755,503.421 43.755,500.421 41.5,490C 46.946,476.773 52.946,463.773 59.5,451C 32.322,428.49 16.1553,399.657 11,364.5C 9.80671,339.519 9.14004,314.519 9,289.5C 4.51597,284.852 1.34931,279.519 -0.5,273.5C -0.5,268.5 -0.5,263.5 -0.5,258.5C 4.40672,243.021 15.0734,234.688 31.5,233.5C 31.3333,170.832 31.5,108.166 32,45.5C 36.8333,27.3333 48.3333,15.8333 66.5,11C 88.497,9.01295 110.497,9.01295 132.5,11C 153.526,17.8684 164.859,32.3684 166.5,54.5C 185.282,60.1166 197.116,72.45 202,91.5C 202.667,104.833 202.667,118.167 202,131.5C 200.5,134.333 198.333,136.5 195.5,138C 168.167,138.667 140.833,138.667 113.5,138C 109.23,136.73 106.73,133.896 106,129.5C 105.333,118.167 105.333,106.833 106,95.5C 109.976,74.0242 122.476,60.3575 143.5,54.5C 142.448,40.9469 135.114,33.4469 121.5,32C 104.794,31.0918 88.1272,31.4252 71.5,33C 62.7712,35.3946 56.9379,40.8946 54,49.5C 53.5,110.832 53.3333,172.166 53.5,233.5C 196.5,233.333 339.5,233.5 482.5,234C 497.576,235.919 507.242,244.085 511.5,258.5 Z M 152.5,74.5 C 166.851,75.3505 176.017,82.6839 180,96.5C 180.5,103.158 180.666,109.825 180.5,116.5C 162.833,116.5 145.167,116.5 127.5,116.5C 123.639,94.8477 131.972,80.8477 152.5,74.5 Z M 31.5,255.5 C 180.5,255.333 329.5,255.5 478.5,256C 487.662,257.49 490.828,262.656 488,271.5C 486.363,273.81 484.196,275.31 481.5,276C 331.167,276.667 180.833,276.667 30.5,276C 21.5149,273.195 19.3482,267.695 24,259.5C 26.2552,257.501 28.7552,256.168 31.5,255.5 Z M 31.5,298.5 C 180.833,298.5 330.167,298.5 479.5,298.5C 479.787,319.188 479.287,339.855 478,360.5C 470.875,402.622 447.709,432.122 408.5,449C 397.842,453.081 386.842,455.748 375.5,457C 295.5,457.667 215.5,457.667 135.5,457C 88.2298,451.303 55.7298,426.469 38,382.5C 35.703,375.312 34.0363,367.978 33,360.5C 31.7132,339.855 31.2132,319.188 31.5,298.5 Z"></path></g></svg>

<svg xmlns="http://www.w3.org/2000/svg" width="512" height="512" style="shape-rendering:geometricPrecision;text-rendering:geometricPrecision;image-rendering:optimizeQuality;fill-rule:evenodd;clip-rule:evenodd"><path fill="#1F628E" d="M511.5 258.5v16q-3.194 8.367-9.5 15a1781 1781 0 0 1-2 75q-7.773 52.825-48.5 86.5a1827 1827 0 0 1 17.5 36.5q1.659 12.181-10.5 14-5.715-.732-9.5-5l-17-34q-24.486 13.688-52.5 16.5-124 1-248 0-28.014-2.812-52.5-16.5A382 382 0 0 1 59.5 499q-14.617 6.631-18-9a514 514 0 0 1 18-39Q18.733 417.235 11 364.5a1781 1781 0 0 1-2-75q-6.725-6.972-9.5-16v-15q7.36-23.218 32-25-.25-94.002.5-188Q39.25 18.25 66.5 11a366 366 0 0 1 66 0q31.539 10.302 34 43.5 28.173 8.425 35.5 37a400 400 0 0 1 0 40q-2.25 4.25-6.5 6.5a1680 1680 0 0 1-82 0q-6.405-1.906-7.5-8.5a289 289 0 0 1 0-34q5.964-32.214 37.5-41-1.578-20.33-22-22.5a336 336 0 0 0-50 1Q58.407 36.593 54 49.5q-.75 91.999-.5 184 214.5-.25 429 .5 22.614 2.878 29 24.5m-359-184q21.526 1.275 27.5 22 .75 9.987.5 20h-53q-5.792-32.478 25-42m-121 181q223.5-.25 447 .5 13.742 2.235 9.5 15.5-2.456 3.465-6.5 4.5-225.5 1-451 0-13.478-4.207-6.5-16.5 3.383-2.998 7.5-4m0 43h448a815 815 0 0 1-1.5 62q-10.687 63.183-69.5 88.5a132.6 132.6 0 0 1-33 8q-120 1-240 0-70.905-8.546-97.5-74.5a131.4 131.4 0 0 1-5-22 815 815 0 0 1-1.5-62" style="opacity:.963"/></svg>
